static/img/mobile/button-pill-secondary-dark.svg

<svg fill="none" height="48" viewBox="0 0 87 48" width="87" xmlns="http://www.w3.org/2000/svg" xmlns:xlink="http://www.w3.org/1999/xlink"><clipPath id="a"><path d="m16 12h55v24h-55z"/></clipPath><rect fill="#353a40" height="48" rx="24" width="87"/><g clip-path="url(#a)"><path d="m17.8125 30v-11.4219h1.875v11.4219zm14.7266-8.8125c.9687 0 1.6979.25 2.1875.75.4948.5.7422 1.3021.7422 2.4063v5.6562h-1.836v-5.3281c0-.6563-.1276-1.1511-.3828-1.4844s-.6432-.5-1.1641-.5c-.7291 0-1.2552.2344-1.5781.7031-.3177.4636-.4766 1.138-.4766 2.0235v4.5859h-1.8359v-5.3281c0-.4375-.0573-.8021-.1719-1.0938-.1093-.2969-.2786-.5182-.5078-.664-.2291-.1511-.5182-.2266-.8672-.2266-.5052 0-.9088.1146-1.2109.3437-.2969.2292-.5104.5678-.6406 1.0157-.1302.4427-.1953.987-.1953 1.6328v4.3203h-1.836v-8.6484h1.4297l.2578 1.164h.1016c.1771-.3021.3958-.5495.6562-.7422.2657-.1979.5599-.3437.8829-.4375.3229-.0989.6588-.1484 1.0078-.1484.6458 0 1.1901.1146 1.6328.3437.4427.224.7734.5678.9922 1.0313h.1406c.2708-.4687.6484-.8151 1.1328-1.0391.4844-.2239.9974-.3359 1.5391-.3359zm10.1797 0c1.026 0 1.8489.375 2.4687 1.125.625.75.9375 1.8646.9375 3.3437 0 .9792-.1458 1.8047-.4375 2.4766-.2865.6667-.6901 1.1719-1.2109 1.5156-.5157.3386-1.1172.5078-1.8047.5078-.4375 0-.8177-.0572-1.1407-.1718-.3229-.1146-.5989-.263-.8281-.4453-.2291-.1875-.4219-.3907-.5781-.6094h-.1094c.0261.2083.0495.4401.0703.6953.0261.25.0391.4792.0391.6875v3.5234h-1.8438v-12.4843h1.5l.2579 1.1953h.0859c.1615-.2448.3568-.4714.5859-.6797.2344-.2083.5157-.3724.8438-.4922.3333-.125.7213-.1875 1.1641-.1875zm-.4922 1.5c-.5052 0-.9115.1016-1.2188.3047-.3021.1979-.5234.4974-.664.8984-.1355.4011-.2084.9037-.2188 1.5078v.2578c0 .6407.0651 1.1849.1953 1.6329.1354.4427.3568.7812.6641 1.0156.3125.2292.7344.3437 1.2656.3437.4479 0 .8177-.1224 1.1094-.3672.2968-.2447.5182-.5937.664-1.0468.1459-.4532.2188-.987.2188-1.6016 0-.9323-.1667-1.6562-.5-2.1719-.3281-.5156-.8333-.7734-1.5156-.7734zm13.9296 2.9687c0 .7188-.0937 1.3568-.2812 1.9141s-.4609 1.0287-.8203 1.4141c-.3594.3802-.7917.6718-1.2969.875-.5052.1979-1.0755.2968-1.7109.2968-.5938 0-1.138-.0989-1.6328-.2968-.4948-.2032-.9245-.4948-1.2891-.875-.3594-.3854-.638-.8568-.8359-1.4141-.198-.5573-.2969-1.1953-.2969-1.9141 0-.9531.164-1.7604.4922-2.4218.3333-.6667.8073-1.1745 1.4218-1.5235.6146-.3489 1.3464-.5234 2.1954-.5234.7968 0 1.5.1745 2.1093.5234.6094.349 1.086.8568 1.4297 1.5235.3438.6666.5156 1.4739.5156 2.4218zm-6.2734 0c0 .6303.0755 1.1693.2266 1.6172.1562.448.3958.7917.7187 1.0313.3229.2344.7396.3515 1.25.3515s.9271-.1171 1.25-.3515c.3229-.2396.5599-.5833.711-1.0313.151-.4479.2265-.9869.2265-1.6172 0-.6302-.0755-1.164-.2265-1.6015-.1511-.4427-.3881-.7787-.711-1.0078-.3229-.2344-.7422-.3516-1.2578-.3516-.7604 0-1.3151.2552-1.6641.7656-.3489.5105-.5234 1.2422-.5234 2.1953zm13.0156-4.4687c.1459 0 .3047.0078.4766.0234.1719.0157.3203.0365.4453.0625l-.1719 1.7188c-.1093-.0313-.2448-.0547-.4062-.0703-.1563-.0157-.2969-.0235-.4219-.0235-.3281 0-.6406.0547-.9375.1641-.2969.1042-.5599.2656-.789.4844-.2292.2135-.4089.4817-.5391.8047-.1302.3229-.1953.6979-.1953 1.125v4.5234h-1.8438v-8.6484h1.4375l.25 1.5234h.086c.1718-.3073.3854-.5885.6406-.8438.2552-.2552.5469-.4583.875-.6093.3333-.1563.6979-.2344 1.0937-.2344zm5.9922 7.4844c.2396 0 .4766-.0209.711-.0625.2343-.0469.4479-.1016.6406-.1641v1.3906c-.2031.0886-.4662.1641-.7891.2266s-.6588.0937-1.0078.0937c-.4896 0-.9297-.0807-1.3203-.2421-.3906-.1667-.7005-.4506-.9297-.8516s-.3437-.9557-.3437-1.6641v-4.6484h-1.1797v-.8203l1.2656-.6485.6016-1.8515h1.1562v1.9219h2.4766v1.3984h-2.4766v4.625c0 .4375.1094.763.3281.9766.2188.2135.5078.3203.8672.3203z" fill="#fff"/></g></svg>

<svg width="87" height="48" viewBox="0 0 87 48" fill="none" xmlns="http://www.w3.org/2000/svg">
<rect width="87" height="48" rx="24" fill="#6A6E79"/>
<g clip-path="url(#clip0_647_123092)">
<path d="M17.8125 30V18.5781H19.6875V30H17.8125ZM32.5391 21.1875C33.5078 21.1875 34.237 21.4375 34.7266 21.9375C35.2214 22.4375 35.4688 23.2396 35.4688 24.3438V30H33.6328V24.6719C33.6328 24.0156 33.5052 23.5208 33.25 23.1875C32.9948 22.8542 32.6068 22.6875 32.0859 22.6875C31.3568 22.6875 30.8307 22.9219 30.5078 23.3906C30.1901 23.8542 30.0312 24.5286 30.0312 25.4141V30H28.1953V24.6719C28.1953 24.2344 28.138 23.8698 28.0234 23.5781C27.9141 23.2812 27.7448 23.0599 27.5156 22.9141C27.2865 22.763 26.9974 22.6875 26.6484 22.6875C26.1432 22.6875 25.7396 22.8021 25.4375 23.0312C25.1406 23.2604 24.9271 23.599 24.7969 24.0469C24.6667 24.4896 24.6016 25.0339 24.6016 25.6797V30H22.7656V21.3516H24.1953L24.4531 22.5156H24.5547C24.7318 22.2135 24.9505 21.9661 25.2109 21.7734C25.4766 21.5755 25.7708 21.4297 26.0938 21.3359C26.4167 21.237 26.7526 21.1875 27.1016 21.1875C27.7474 21.1875 28.2917 21.3021 28.7344 21.5312C29.1771 21.7552 29.5078 22.099 29.7266 22.5625H29.8672C30.138 22.0938 30.5156 21.7474 31 21.5234C31.4844 21.2995 31.9974 21.1875 32.5391 21.1875ZM42.7188 21.1875C43.7448 21.1875 44.5677 21.5625 45.1875 22.3125C45.8125 23.0625 46.125 24.1771 46.125 25.6562C46.125 26.6354 45.9792 27.4609 45.6875 28.1328C45.401 28.7995 44.9974 29.3047 44.4766 29.6484C43.9609 29.987 43.3594 30.1562 42.6719 30.1562C42.2344 30.1562 41.8542 30.099 41.5312 29.9844C41.2083 29.8698 40.9323 29.7214 40.7031 29.5391C40.474 29.3516 40.2812 29.1484 40.125 28.9297H40.0156C40.0417 29.138 40.0651 29.3698 40.0859 29.625C40.112 29.875 40.125 30.1042 40.125 30.3125V33.8359H38.2812V21.3516H39.7812L40.0391 22.5469H40.125C40.2865 22.3021 40.4818 22.0755 40.7109 21.8672C40.9453 21.6589 41.2266 21.4948 41.5547 21.375C41.888 21.25 42.276 21.1875 42.7188 21.1875ZM42.2266 22.6875C41.7214 22.6875 41.3151 22.7891 41.0078 22.9922C40.7057 23.1901 40.4844 23.4896 40.3438 23.8906C40.2083 24.2917 40.1354 24.7943 40.125 25.3984V25.6562C40.125 26.2969 40.1901 26.8411 40.3203 27.2891C40.4557 27.7318 40.6771 28.0703 40.9844 28.3047C41.2969 28.5339 41.7188 28.6484 42.25 28.6484C42.6979 28.6484 43.0677 28.526 43.3594 28.2812C43.6562 28.0365 43.8776 27.6875 44.0234 27.2344C44.1693 26.7812 44.2422 26.2474 44.2422 25.6328C44.2422 24.7005 44.0755 23.9766 43.7422 23.4609C43.4141 22.9453 42.9089 22.6875 42.2266 22.6875ZM56.1562 25.6562C56.1562 26.375 56.0625 27.013 55.875 27.5703C55.6875 28.1276 55.4141 28.599 55.0547 28.9844C54.6953 29.3646 54.263 29.6562 53.7578 29.8594C53.2526 30.0573 52.6823 30.1562 52.0469 30.1562C51.4531 30.1562 50.9089 30.0573 50.4141 29.8594C49.9193 29.6562 49.4896 29.3646 49.125 28.9844C48.7656 28.599 48.487 28.1276 48.2891 27.5703C48.0911 27.013 47.9922 26.375 47.9922 25.6562C47.9922 24.7031 48.1562 23.8958 48.4844 23.2344C48.8177 22.5677 49.2917 22.0599 49.9062 21.7109C50.5208 21.362 51.2526 21.1875 52.1016 21.1875C52.8984 21.1875 53.6016 21.362 54.2109 21.7109C54.8203 22.0599 55.2969 22.5677 55.6406 23.2344C55.9844 23.901 56.1562 24.7083 56.1562 25.6562ZM49.8828 25.6562C49.8828 26.2865 49.9583 26.8255 50.1094 27.2734C50.2656 27.7214 50.5052 28.0651 50.8281 28.3047C51.151 28.5391 51.5677 28.6562 52.0781 28.6562C52.5885 28.6562 53.0052 28.5391 53.3281 28.3047C53.651 28.0651 53.888 27.7214 54.0391 27.2734C54.1901 26.8255 54.2656 26.2865 54.2656 25.6562C54.2656 25.026 54.1901 24.4922 54.0391 24.0547C53.888 23.612 53.651 23.276 53.3281 23.0469C53.0052 22.8125 52.5859 22.6953 52.0703 22.6953C51.3099 22.6953 50.7552 22.9505 50.4062 23.4609C50.0573 23.9714 49.8828 24.7031 49.8828 25.6562ZM62.8984 21.1875C63.0443 21.1875 63.2031 21.1953 63.375 21.2109C63.5469 21.2266 63.6953 21.2474 63.8203 21.2734L63.6484 22.9922C63.5391 22.9609 63.4036 22.9375 63.2422 22.9219C63.0859 22.9062 62.9453 22.8984 62.8203 22.8984C62.4922 22.8984 62.1797 22.9531 61.8828 23.0625C61.5859 23.1667 61.3229 23.3281 61.0938 23.5469C60.8646 23.7604 60.6849 24.0286 60.5547 24.3516C60.4245 24.6745 60.3594 25.0495 60.3594 25.4766V30H58.5156V21.3516H59.9531L60.2031 22.875H60.2891C60.4609 22.5677 60.6745 22.2865 60.9297 22.0312C61.1849 21.776 61.4766 21.5729 61.8047 21.4219C62.138 21.2656 62.5026 21.1875 62.8984 21.1875ZM68.8906 28.6719C69.1302 28.6719 69.3672 28.651 69.6016 28.6094C69.8359 28.5625 70.0495 28.5078 70.2422 28.4453V29.8359C70.0391 29.9245 69.776 30 69.4531 30.0625C69.1302 30.125 68.7943 30.1562 68.4453 30.1562C67.9557 30.1562 67.5156 30.0755 67.125 29.9141C66.7344 29.7474 66.4245 29.4635 66.1953 29.0625C65.9661 28.6615 65.8516 28.1068 65.8516 27.3984V22.75H64.6719V21.9297L65.9375 21.2812L66.5391 19.4297H67.6953V21.3516H70.1719V22.75H67.6953V27.375C67.6953 27.8125 67.8047 28.138 68.0234 28.3516C68.2422 28.5651 68.5312 28.6719 68.8906 28.6719Z" fill="white"/>
</g>
<defs>
<clipPath id="clip0_647_123092">
<rect width="55" height="24" fill="white" transform="translate(16 12)"/>
</clipPath>
</defs>
</svg>
